public/ryota_logo_background.svg

<svg fill="none" viewBox="0 0 725 256" xmlns="http://www.w3.org/2000/svg"><path d="m61.5755 41.3123c1.6344 5.4823 2.0189 31.0662.7691 43.8581-.6729 6.8288-2.8841 20.1976-3.2687 22.6986-.2884 2.501-.9614 6.54-1.4421 8.945-.4807 2.404-1.1536 6.059-1.5382 8.175-.2884 2.116-.9614 5.386-1.4421 7.214-.3845 1.827-1.2498 6.444-1.9228 10.098-.5768 3.751-1.4421 8.464-1.9228 10.58-.3845 2.116-1.2498 6.925-1.9227 10.58-1.5382 9.33-3.0764 14.908-4.7108 16.158-1.0575.866-2.1151.193-5.2877-3.27-4.2301-4.713-7.3065-12.022-9.2293-21.736-1.3459-6.637-.7691-30.874.9614-41.647 1.6343-10.195 3.8455-33.6625 3.8455-40.3952-.0961-3.4624-.6729-10.5798-1.5382-15.8697-.7691-5.2899-1.5382-10.4836-1.6344-11.4454-.1922-1.9236 2.3074-2.693 17.5935-5.2899 11.5366-1.9236 11.7289-1.9236 12.6903 1.3465zm40.4875-41.31219577c6.805-.00000119 13.338.77927877 19.601 2.33784577 6.263 1.55857 11.753 3.99385 16.47 7.30581 4.716 3.31194 8.485 7.61754 11.308 12.91664 2.822 5.2992 4.233 11.6893 4.233 19.1705 0 3.9743-.657 8.0461-1.972 12.2153-1.314 4.1691-3.479 8.3383-6.495 12.5075-3.015 4.1692-7.016 8.2994-12.004 12.3907-4.987 4.0912-11.153 8.0071-18.499 11.7477 2.727 2.5536 8.664 4.2917 18.499 14.8599 7.287 7.83 10.822 14.88 13.981 23.474 1.554 4.228 2.331 8.45 4.518 15.417 1.891 6.022 4.118 9.776 9.219 13.642 2.322 1.761 5.79 4.504 9.61 5.794 5.447 1.84 11.479 1.86 14.799 1.554 5.649-.519 8.934-3.303 9.174-3.345.211-.037-4.226 6.865-15.984 10.888-3.343.8-6.511 1.532-9.068 1.62-2.939 0-5.372-.117-9.55-.427-5.601-.416-14.722-2.482-19.984-4.871-4.52-2.535-8.888-5.375-12.864-13.527-1.901-3.898-3.245-11.207-5.391-15.716-2.145-4.509-9.336-14.535-13.975-18.821-4.64-4.286-9.1865-7.517-16.7567-11.008-.7009-.323-3.1755-1.683-9.0952-3.249-4.999-1.323-5.1778-1.371-14.0121-2.566.5461-.206 11.7327-.371 15.9189-1.258 5.343-1.134 9.681-4.2961 14.1442-6.9669 4.9489-2.9613 9.2589-6.3512 12.9319-10.1697s6.572-8.0851 8.699-12.7998c2.126-4.7147 3.189-9.9164 3.189-15.6052 0-6.8577-1.392-12.8582-4.175-18.0015-2.784-5.1433-6.399-9.4294-10.845-12.8582-4.445-3.4289-9.4906-6.0005-15.1351-7.7149-5.6444-1.7145-11.3274-2.5717-17.0492-2.5717-4.6392 0-9.0852.2338-13.3378.7014-8.9992.7335-18.6643 1.6687-28.9953 2.8054-2.0103.2338-3.982.3702-5.915.4091-1.9331.039-3.9047.0585-5.9151.0585-2.9382 0-6.2436-.0779-9.9164-.2338-3.67269-.1559-7.48074-.4676-11.42409665-.9351l29.34319665-18.702912c6.0311.857212 11.7141 1.441682 17.0493 1.753402 5.3351.31171 9.7424.46757 13.2218.46757 3.866 0 7.5968-.13639 11.1922-.40914s7.1328-.58446 10.6123-.93514c3.4794-.350678 6.9202-.662391 10.3223-.935142s6.8429-.40913317 10.3219-.40913377zm80.757 255.99989577c.626 0 1.252-.158 1.877-.476.626-.317 1.148-.758 1.565-1.322s.712-1.216.886-1.957c.174-.74.157-1.534-.052-2.38-.348-1.34-.521-3.032-.521-5.077s.382-4.513 1.147-7.404 2.068-6.311 3.911-10.26c1.842-3.949 4.467-8.498 7.874-13.645 3.406-5.148 8.03-11.089 13.87-17.823 5.84-6.735 12.341-13.945 19.502-21.631 7.162-7.687 14.67-15.69 22.527-24.011 7.856-8.321 15.504-16.607 22.944-24.857 5.84-6.417 10.602-12.482 14.287-18.194 3.685-5.711 6.588-11.0002 8.709-15.8658 2.12-4.8657 3.58-9.3082 4.38-13.3276.799-4.0195 1.199-7.5806 1.199-10.6833 0-1.3398-.087-2.8912-.261-4.6541-.173-1.7629-.538-3.4201-1.095-4.9714-.556-1.5514-1.39-2.8559-2.503-3.9137-1.112-1.0577-2.607-1.5866-4.484-1.5866-2.642 0-5.267.6875-7.874 2.0626s-5.11 3.1027-7.509 5.183c-2.399 2.0802-4.658 4.3191-6.779 6.7167-2.12 2.3975-3.98 4.5835-5.579 6.558 1.947-.3526 3.685-.2468 5.214.3173 1.53.5642 2.781 1.5338 3.755 2.9088.973 1.3751 1.72 3.1028 2.242 5.183.521 2.0803.782 4.4249.782 7.034 0 2.8912-.678 6.1879-2.034 9.89-1.355 3.7021-3.233 7.7041-5.631 12.0051-2.399 4.302-5.197 8.833-8.396 13.592-3.198 4.76-6.674 9.608-10.429 14.544-2.155-9.801-4.71-18.88-7.665-27.237-2.955-8.356-5.944-15.8129-8.969-22.371-3.024-6.558-5.84-12.1464-8.447-16.7653-2.607-4.6188-4.641-8.127-6.101-10.5246-1.53-2.3975-3.181-4.1252-4.954-5.1829-1.773-1.0578-3.667-1.5867-5.684-1.5867-2.92 0-5.892.7229-8.916 2.1684-3.025 1.4456-5.962 3.2262-8.813 5.3417s-5.562 4.4073-8.135 6.8753c-2.572 2.4681-4.866 4.6894-6.883 6.6639 1.738-.9873 3.442-1.7806 5.11-2.38 1.669-.5994 3.303-.8991 4.902-.8991 3.894 0 7.544 1.5866 10.95 4.7599 3.407 3.1732 6.571 7.3514 9.491 12.5343 2.92 5.183 5.579 11.0891 7.978 17.7171 2.399 6.629 4.519 13.381 6.362 20.256 1.842 6.875 3.441 13.61 4.797 20.203s2.416 12.429 3.181 17.506c-6.118 7.263-12.063 14.191-17.834 20.785-5.77 6.593-10.915 12.428-15.435 17.505-3.684 4.161-7.022 8.55-10.011 13.169-2.99 4.619-5.528 9.097-7.613 13.434-2.086 4.336-3.616 8.356-4.589 12.058-.974 3.702-1.217 6.646-.73 8.832.486 1.834 1.147 3.156 1.981 3.967.835.811 1.669 1.216 2.503 1.216zm198.695-84.911c5.098 0 10.053-.666 14.867-1.997 4.814-1.332 9.504-3.101 14.071-5.309 4.566-2.207 9.008-4.713 13.327-7.516 4.318-2.804 8.53-5.677 12.636-8.62 1.416-1.052 3.292-2.769 5.629-5.151 2.336-2.383 4.637-5.362 6.902-8.936s4.212-7.744 5.841-12.51c1.628-4.765 2.442-10.057 2.442-15.873 0-6.8686-1.221-13.2461-3.664-19.133-2.442-5.887-5.876-10.9855-10.3-15.2955-4.425-4.3101-9.699-7.6741-15.823-10.0919-6.124-2.4179-12.867-3.6268-20.229-3.6268-5.947 0-12.106.7358-18.478 2.2076-6.371 1.4717-12.566 3.6093-18.583 6.4126-6.018 2.8033-11.717 6.2198-17.097 10.2495-5.38 4.0298-10.07 8.5676-14.07 13.6136-4 5.0459-7.186 10.5649-9.558 16.5569-2.371 5.992-3.557 12.387-3.557 19.185 0 7.709 1.469 14.437 4.407 20.184s6.938 10.512 12 14.297c5.061 3.784 10.973 6.623 17.734 8.515 6.76 1.892 13.928 2.838 21.503 2.838zm16.33-12.673c-6.254 0-12.144-1.183-17.669-3.549-5.525-2.365-10.355-5.635-14.49-9.81s-7.384-9.063-9.746-14.664c-2.363-5.601-3.545-11.637-3.545-18.108 0-2.852.261-5.897.782-9.132.521-3.2354 1.321-6.436 2.398-9.6018 1.077-3.1659 2.432-6.1925 4.065-9.08 1.633-2.8876 3.579-5.4272 5.838-7.6189 2.258-2.1918 4.847-3.9312 7.766-5.2184s6.15-1.9308 9.694-1.9308c6.255 0 12.127 1.3219 17.617 3.9659s10.285 6.1926 14.386 10.6456c4.1 4.453 7.331 9.6019 9.694 15.4465 2.363 5.8449 3.544 11.9329 3.544 18.2649 0 7.236-.851 13.411-2.554 18.525-1.702 5.114-3.961 9.289-6.775 12.524-2.815 3.235-6.046 5.601-9.695 7.097-3.648 1.496-7.418 2.244-11.31 2.244zm120.053 13.858c4.019.282 8.337-.158 12.954-1.321 4.618-1.163 9.447-2.942 14.487-5.338 5.041-2.396 10.24-5.356 15.597-8.879 5.358-3.523 10.786-7.505 16.285-11.944-5.287 3.382-10.486 5.814-15.597 7.293-5.111 1.48-9.887 2.22-14.329 2.22-4.37 0-8.354-.617-11.949-1.85s-6.715-2.871-9.358-4.915c-2.644-2.043-4.706-4.439-6.186-7.187-1.481-2.749-2.256-5.673-2.327-8.774 0-9.442.036-19.026.106-28.75.071-9.7244.176-19.6249.317-29.7017 5.076-.2818 10.205-.8456 15.386-1.6912 5.182-.8456 10.24-2.0964 15.175-3.7523 4.934-1.656 9.675-3.7876 14.222-6.3949s8.724-5.8135 12.531-9.6187c-1.339.6342-2.978 1.1979-4.917 1.6912s-4.036.8985-6.292 1.2156-4.6.5813-7.032.7927-4.811.3523-7.138.4228c-5.428.2819-11.174.3523-17.236.2114l-5.129-.0015c-1.175-.0049-2.497-.022-3.965-.0513-1.763-.0353-3.56-.0881-5.393-.1586l.423-35.5152c-1.481 1.1979-3.455 2.6425-5.922 4.3337-2.115 1.4093-4.864 3.1358-8.248 5.1793s-7.543 4.2985-12.478 6.7648c0 7.0467-.529 12.6488-1.586 16.8063-1.058 4.1575-2.221 7.3638-3.49 9.6187-1.48 2.6073-3.172 4.4042-5.076 5.3907-1.903 1.3389-3.877 2.6778-5.921 4.0166-1.763 1.198-3.719 2.5016-5.869 3.9109-2.15 1.4094-4.283 2.7835-6.398 4.1224 2.609-1.3389 5.252-2.4488 7.931-3.3296s5.27-1.5855 7.772-2.114c2.503-.5285 4.829-.8985 6.98-1.1099 2.15-.2114 3.965-.3875 5.445-.5285-.141 9.3016-.282 17.4405-.422 24.4168-.141 6.9765-.283 12.8245-.424 17.5465-.211 5.496-.352 10.253-.422 14.269-.212 7.47.352 13.847 1.691 19.132 1.34 5.285 3.243 9.619 5.711 13.001 2.467 3.382 5.41 5.919 8.829 7.61 3.42 1.692 7.173 2.678 11.262 2.96zm162.821-1.331c2.314.175 4.207.193 5.68.052 2.664-.14 5.61-.737 8.835-1.792 3.226-1.054 6.556-2.46 9.992-4.217s6.854-3.848 10.255-6.273c3.401-2.424 6.574-5.113 9.519-8.065-3.155 1.125-6.206 2.021-9.151 2.689-2.945.667-5.714 1.001-8.309 1.001-4.347 0-7.555-.914-9.624-2.741-2.068-1.827-3.453-4.217-4.155-7.169-.701-2.952-.981-6.29-.841-10.015s.21-7.521.21-11.386c0-3.796.035-7.697.106-11.703.07-4.006.175-8.451.315-13.3362.14-4.8847.316-10.4196.526-16.6046s.456-13.3189.736-21.4015c-6.801-1.1949-12.867-1.9856-18.196-2.3721-5.329-.3866-9.957-.5799-13.884-.5799-3.786 0-7.923.4218-12.411 1.2652-4.487.8434-9.098 2.0382-13.831 3.5845-4.733 1.5462-9.484 3.3736-14.252 5.4821s-9.273 4.4631-13.515 7.0636c-4.243 2.6005-8.152 5.3767-11.728 8.3287-3.576 2.9519-6.521 6.0092-8.835 9.172-1.262 1.6868-2.472 3.8305-3.629 6.431-1.157 2.6002-2.174 5.5172-3.05 8.7502-.877 3.233-1.595 6.66-2.156 10.279-.561 3.62-.842 7.292-.842 11.017 0 4.99.737 10.016 2.209 15.076 1.473 5.061 3.681 9.629 6.626 13.706 2.945 4.076 6.592 7.397 10.939 9.962 4.348 2.566 9.396 3.848 15.146 3.848 4.488 0 9.046-.79 13.673-2.372 4.628-1.581 9.204-3.725 13.726-6.431 4.523-2.706 8.923-5.798 13.201-9.277 4.277-3.479 8.344-7.116 12.2-10.912v12.546c0 4.147.772 7.345 2.314 9.594 1.543 2.249 3.384 3.901 5.522 4.955 2.139 1.054 4.365 1.669 6.679 1.845zm-48.232-20.131c-4.809 0-9.078-1.111-12.807-3.334-3.729-2.222-6.865-5.112-9.409-8.668s-4.478-7.573-5.802-12.052c-1.324-4.48-1.986-8.942-1.986-13.387 0-4.65.54-9.163 1.62-13.54 1.08-4.3766 2.387-8.3088 3.92-11.7964 1.534-3.4876 3.137-6.4111 4.809-8.7704 1.673-2.3592 3.137-3.8466 4.391-4.4621.697-.4103 1.708-.7693 3.032-1.077 1.324-.3078 2.858-.5642 4.6-.7694s3.677-.3761 5.802-.5129c2.126-.1367 4.374-.2051 6.743-.2051 4.322 0 8.852.2222 13.591.6667s9.2 1.2139 13.382 2.308c-.07 5.5392-.122 10.6168-.157 15.2328-.035 4.6159-.052 8.8729-.052 12.7708v19.9c-1.046 3.898-2.422 7.522-4.13 10.873-1.707 3.351-3.85 6.275-6.429 8.771s-5.611 4.462-9.096 5.898c-3.484 1.436-7.492 2.154-12.022 2.154z"/></svg>

<svg viewBox="0 0 725 256" fill="none" xmlns="http://www.w3.org/2000/svg">
<path d="M61.5755 41.3123C63.2099 46.7946 63.5944 72.3785 62.3446 85.1704C61.6717 91.9992 59.4605 105.368 59.0759 107.869C58.7875 110.37 58.1145 114.409 57.6338 116.814C57.1531 119.218 56.4802 122.873 56.0956 124.989C55.8072 127.105 55.1342 130.375 54.6535 132.203C54.269 134.03 53.4037 138.647 52.7307 142.301C52.1539 146.052 51.2886 150.765 50.8079 152.881C50.4234 154.997 49.5581 159.806 48.8852 163.461C47.347 172.791 45.8088 178.369 44.1744 179.619C43.1169 180.485 42.0593 179.812 38.8867 176.349C34.6566 171.636 31.5802 164.327 29.6574 154.613C28.3115 147.976 28.8883 123.739 30.6188 112.966C32.2531 102.771 34.4643 79.3035 34.4643 72.5708C34.3682 69.1084 33.7914 61.991 32.9261 56.7011C32.157 51.4112 31.3879 46.2175 31.2917 45.2557C31.0995 43.3321 33.5991 42.5627 48.8852 39.9658C60.4218 38.0422 60.6141 38.0422 61.5755 41.3123ZM102.063 0.000104225C108.868 0.000103035 115.401 0.779383 121.664 2.33795C127.927 3.89652 133.417 6.3318 138.134 9.64376C142.85 12.9557 146.619 17.2613 149.442 22.5604C152.264 27.8596 153.675 34.2497 153.675 41.7309C153.675 45.7052 153.018 49.777 151.703 53.9462C150.389 58.1153 148.224 62.2845 145.208 66.4537C142.193 70.6229 138.192 74.7531 133.204 78.8444C128.217 82.9356 122.051 86.8515 114.705 90.5921C117.432 93.1457 123.369 94.8838 133.204 105.452C140.491 113.282 144.026 120.332 147.185 128.926C148.739 133.154 149.516 137.376 151.703 144.343C153.594 150.365 155.821 154.119 160.922 157.985C163.244 159.746 166.712 162.489 170.532 163.779C175.979 165.619 182.011 165.639 185.331 165.333C190.98 164.814 194.265 162.03 194.505 161.988C194.716 161.951 190.279 168.853 178.521 172.876C175.178 173.676 172.01 174.408 169.453 174.496C166.514 174.496 164.081 174.379 159.903 174.069C154.302 173.653 145.181 171.587 139.919 169.198C135.399 166.663 131.031 163.823 127.055 155.671C125.154 151.773 123.81 144.464 121.664 139.955C119.519 135.446 112.328 125.42 107.689 121.134C103.049 116.848 98.5025 113.617 90.9323 110.126C90.2314 109.803 87.7568 108.443 81.8371 106.877C76.8381 105.554 76.6593 105.506 67.825 104.311C68.3711 104.105 79.5577 103.94 83.7439 103.053C89.0869 101.919 93.4249 98.7569 97.8881 96.0861C102.837 93.1248 107.147 89.7349 110.82 85.9164C114.493 82.0979 117.392 77.8313 119.519 73.1166C121.645 68.4019 122.708 63.2002 122.708 57.5114C122.708 50.6537 121.316 44.6532 118.533 39.5099C115.749 34.3666 112.134 30.0805 107.688 26.6517C103.243 23.2228 98.1974 20.6512 92.5529 18.9368C86.9085 17.2223 81.2255 16.3651 75.5037 16.3651C70.8645 16.3651 66.4185 16.5989 62.1659 17.0665C53.1667 17.8 43.5016 18.7352 33.1706 19.8719C31.1603 20.1057 29.1886 20.2421 27.2556 20.281C25.3225 20.32 23.3509 20.3395 21.3405 20.3395C18.4023 20.3395 15.0969 20.2616 11.4241 20.1057C7.75141 19.9498 3.94336 19.6381 3.35186e-06 19.1706L29.3432 0.467688C35.3743 1.3249 41.0573 1.90937 46.3925 2.22109C51.7276 2.5328 56.1349 2.68866 59.6143 2.68866C63.4803 2.68866 67.2111 2.55227 70.8065 2.27952C74.4019 2.00677 77.9393 1.69506 81.4188 1.34438C84.8982 0.993702 88.339 0.681989 91.7411 0.409238C95.1432 0.136487 98.584 0.000104833 102.063 0.000104225ZM182.82 256C183.446 256 184.072 255.842 184.697 255.524C185.323 255.207 185.845 254.766 186.262 254.202C186.679 253.638 186.974 252.986 187.148 252.245C187.322 251.505 187.305 250.711 187.096 249.865C186.748 248.525 186.575 246.833 186.575 244.788C186.575 242.743 186.957 240.275 187.722 237.384C188.487 234.493 189.79 231.073 191.633 227.124C193.475 223.175 196.1 218.626 199.507 213.479C202.913 208.331 207.537 202.39 213.377 195.656C219.217 188.921 225.718 181.711 232.879 174.025C240.041 166.338 247.549 158.335 255.406 150.014C263.262 141.693 270.91 133.407 278.35 125.157C284.19 118.74 288.952 112.675 292.637 106.963C296.322 101.252 299.225 95.9628 301.346 91.0972C303.466 86.2315 304.926 81.789 305.726 77.7696C306.525 73.7501 306.925 70.189 306.925 67.0863C306.925 65.7465 306.838 64.1951 306.664 62.4322C306.491 60.6693 306.126 59.0121 305.569 57.4608C305.013 55.9094 304.179 54.6049 303.066 53.5471C301.954 52.4894 300.459 51.9605 298.582 51.9605C295.94 51.9605 293.315 52.648 290.708 54.0231C288.101 55.3982 285.598 57.1258 283.199 59.2061C280.8 61.2863 278.541 63.5252 276.42 65.9228C274.3 68.3203 272.44 70.5063 270.841 72.4808C272.788 72.1282 274.526 72.234 276.055 72.7981C277.585 73.3623 278.836 74.3319 279.81 75.7069C280.783 77.082 281.53 78.8097 282.052 80.8899C282.573 82.9702 282.834 85.3148 282.834 87.9239C282.834 90.8151 282.156 94.1118 280.8 97.8139C279.445 101.516 277.567 105.518 275.169 109.819C272.77 114.121 269.972 118.652 266.773 123.411C263.575 128.171 260.099 133.019 256.344 137.955C254.189 128.154 251.634 119.075 248.679 110.718C245.724 102.362 242.735 94.9051 239.71 88.347C236.686 81.789 233.87 76.2006 231.263 71.5817C228.656 66.9629 226.622 63.4547 225.162 61.0571C223.632 58.6596 221.981 56.9319 220.208 55.8742C218.435 54.8164 216.541 54.2875 214.524 54.2875C211.604 54.2875 208.632 55.0104 205.608 56.4559C202.583 57.9015 199.646 59.6821 196.795 61.7976C193.944 63.9131 191.233 66.2049 188.66 68.6729C186.088 71.141 183.794 73.3623 181.777 75.3368C183.515 74.3495 185.219 73.5562 186.887 72.9568C188.556 72.3574 190.19 72.0577 191.789 72.0577C195.683 72.0577 199.333 73.6443 202.739 76.8176C206.146 79.9908 209.31 84.169 212.23 89.3519C215.15 94.5349 217.809 100.441 220.208 107.069C222.607 113.698 224.727 120.45 226.57 127.325C228.412 134.2 230.011 140.935 231.367 147.528C232.723 154.121 233.783 159.957 234.548 165.034C228.43 172.297 222.485 179.225 216.714 185.819C210.944 192.412 205.799 198.247 201.279 203.324C197.595 207.485 194.257 211.874 191.268 216.493C188.278 221.112 185.74 225.59 183.655 229.927C181.569 234.263 180.039 238.283 179.066 241.985C178.092 245.687 177.849 248.631 178.336 250.817C178.822 252.651 179.483 253.973 180.317 254.784C181.152 255.595 181.986 256 182.82 256ZM381.515 171.089C386.613 171.089 391.568 170.423 396.382 169.092C401.196 167.76 405.886 165.991 410.453 163.783C415.019 161.576 419.461 159.07 423.78 156.267C428.098 153.463 432.31 150.59 436.416 147.647C437.832 146.595 439.708 144.878 442.045 142.496C444.381 140.113 446.682 137.134 448.947 133.56C451.212 129.986 453.159 125.816 454.788 121.05C456.416 116.285 457.23 110.993 457.23 105.177C457.23 98.3084 456.009 91.9309 453.566 86.044C451.124 80.157 447.69 75.0585 443.266 70.7485C438.841 66.4384 433.567 63.0744 427.443 60.6566C421.319 58.2387 414.576 57.0298 407.214 57.0298C401.267 57.0298 395.108 57.7656 388.736 59.2374C382.365 60.7091 376.17 62.8467 370.153 65.65C364.135 68.4533 358.436 71.8698 353.056 75.8995C347.676 79.9293 342.986 84.4671 338.986 89.5131C334.986 94.559 331.8 100.078 329.428 106.07C327.057 112.062 325.871 118.457 325.871 125.255C325.871 132.964 327.34 139.692 330.278 145.439C333.216 151.186 337.216 155.951 342.278 159.736C347.339 163.52 353.251 166.359 360.012 168.251C366.772 170.143 373.94 171.089 381.515 171.089ZM397.845 158.416C391.591 158.416 385.701 157.233 380.176 154.867C374.651 152.502 369.821 149.232 365.686 145.057C361.551 140.882 358.302 135.994 355.94 130.393C353.577 124.792 352.395 118.756 352.395 112.285C352.395 109.433 352.656 106.388 353.177 103.153C353.698 99.9176 354.498 96.717 355.575 93.5512C356.652 90.3853 358.007 87.3587 359.64 84.4712C361.273 81.5836 363.219 79.044 365.478 76.8523C367.736 74.6605 370.325 72.9211 373.244 71.6339C376.163 70.3467 379.394 69.7031 382.938 69.7031C389.193 69.7031 395.065 71.025 400.555 73.669C406.045 76.313 410.84 79.8616 414.941 84.3146C419.041 88.7676 422.272 93.9165 424.635 99.7611C426.998 105.606 428.179 111.694 428.179 118.026C428.179 125.262 427.328 131.437 425.625 136.551C423.923 141.665 421.664 145.84 418.85 149.075C416.035 152.31 412.804 154.676 409.155 156.172C405.507 157.668 401.737 158.416 397.845 158.416ZM517.898 172.274C521.917 172.556 526.235 172.116 530.852 170.953C535.47 169.79 540.299 168.011 545.339 165.615C550.38 163.219 555.579 160.259 560.936 156.736C566.294 153.213 571.722 149.231 577.221 144.792C571.934 148.174 566.735 150.606 561.624 152.085C556.513 153.565 551.737 154.305 547.295 154.305C542.925 154.305 538.941 153.688 535.346 152.455C531.751 151.222 528.631 149.584 525.988 147.54C523.344 145.497 521.282 143.101 519.802 140.353C518.321 137.604 517.546 134.68 517.475 131.579C517.475 122.137 517.511 112.553 517.581 102.829C517.652 93.1046 517.757 83.2041 517.898 73.1273C522.974 72.8455 528.103 72.2817 533.284 71.4361C538.466 70.5905 543.524 69.3397 548.459 67.6838C553.393 66.0278 558.134 63.8962 562.681 61.2889C567.228 58.6816 571.405 55.4754 575.212 51.6702C573.873 52.3044 572.234 52.8681 570.295 53.3614C568.356 53.8547 566.259 54.2599 564.003 54.577C561.747 54.8941 559.403 55.1583 556.971 55.3697C554.539 55.5811 552.16 55.722 549.833 55.7925C544.405 56.0744 538.659 56.1448 532.597 56.0039L527.468 56.0024C526.293 55.9975 524.971 55.9804 523.503 55.9511C521.74 55.9158 519.943 55.863 518.11 55.7925L518.533 20.2773C517.052 21.4752 515.078 22.9198 512.611 24.611C510.496 26.0203 507.747 27.7468 504.363 29.7903C500.979 31.8338 496.82 34.0888 491.885 36.5551C491.885 43.6018 491.356 49.2039 490.299 53.3614C489.241 57.5189 488.078 60.7252 486.809 62.9801C485.329 65.5874 483.637 67.3843 481.733 68.3708C479.83 69.7097 477.856 71.0486 475.812 72.3874C474.049 73.5854 472.093 74.889 469.943 76.2983C467.793 77.7077 465.66 79.0818 463.545 80.4207C466.154 79.0818 468.797 77.9719 471.476 77.0911C474.155 76.2103 476.746 75.5056 479.248 74.9771C481.751 74.4486 484.077 74.0786 486.228 73.8672C488.378 73.6558 490.193 73.4797 491.673 73.3387C491.532 82.6403 491.391 90.7792 491.251 97.7555C491.11 104.732 490.968 110.58 490.827 115.302C490.616 120.798 490.475 125.555 490.405 129.571C490.193 137.041 490.757 143.418 492.096 148.703C493.436 153.988 495.339 158.322 497.807 161.704C500.274 165.086 503.217 167.623 506.636 169.314C510.056 171.006 513.809 171.992 517.898 172.274ZM680.719 170.943C683.033 171.118 684.926 171.136 686.399 170.995C689.063 170.855 692.009 170.258 695.234 169.203C698.46 168.149 701.79 166.743 705.226 164.986C708.662 163.229 712.08 161.138 715.481 158.713C718.882 156.289 722.055 153.6 725 150.648C721.845 151.773 718.794 152.669 715.849 153.337C712.904 154.004 710.135 154.338 707.54 154.338C703.193 154.338 699.985 153.424 697.916 151.597C695.848 149.77 694.463 147.38 693.761 144.428C693.06 141.476 692.78 138.138 692.92 134.413C693.06 130.688 693.13 126.892 693.13 123.027C693.13 119.231 693.165 115.33 693.236 111.324C693.306 107.318 693.411 102.873 693.551 97.9878C693.691 93.1031 693.867 87.5682 694.077 81.3832C694.287 75.1982 694.533 68.0643 694.813 59.9817C688.012 58.7868 681.946 57.9961 676.617 57.6096C671.288 57.223 666.66 57.0297 662.733 57.0297C658.947 57.0297 654.81 57.4515 650.322 58.2949C645.835 59.1383 641.224 60.3331 636.491 61.8794C631.758 63.4256 627.007 65.253 622.239 67.3615C617.471 69.47 612.966 71.8246 608.724 74.4251C604.481 77.0256 600.572 79.8018 596.996 82.7538C593.42 85.7057 590.475 88.763 588.161 91.9258C586.899 93.6126 585.689 95.7563 584.532 98.3568C583.375 100.957 582.358 103.874 581.482 107.107C580.605 110.34 579.887 113.767 579.326 117.386C578.765 121.006 578.484 124.678 578.484 128.403C578.484 133.393 579.221 138.419 580.693 143.479C582.166 148.54 584.374 153.108 587.319 157.185C590.264 161.261 593.911 164.582 598.258 167.147C602.606 169.713 607.654 170.995 613.404 170.995C617.892 170.995 622.45 170.205 627.077 168.623C631.705 167.042 636.281 164.898 640.803 162.192C645.326 159.486 649.726 156.394 654.004 152.915C658.281 149.436 662.348 145.799 666.204 142.003L666.204 154.549C666.204 158.696 666.976 161.894 668.518 164.143C670.061 166.392 671.902 168.044 674.04 169.098C676.179 170.152 678.405 170.767 680.719 170.943ZM632.487 150.812C627.678 150.812 623.409 149.701 619.68 147.478C615.951 145.256 612.815 142.366 610.271 138.81C607.727 135.254 605.793 131.237 604.469 126.758C603.145 122.278 602.483 117.816 602.483 113.371C602.483 108.721 603.023 104.208 604.103 99.831C605.183 95.4544 606.49 91.5222 608.023 88.0346C609.557 84.547 611.16 81.6235 612.832 79.2642C614.505 76.905 615.969 75.4176 617.223 74.8021C617.92 74.3918 618.931 74.0328 620.255 73.7251C621.579 73.4173 623.113 73.1609 624.855 72.9557C626.597 72.7505 628.532 72.5796 630.657 72.4428C632.783 72.3061 635.031 72.2377 637.4 72.2377C641.722 72.2377 646.252 72.4599 650.991 72.9044C655.73 73.3489 660.191 74.1183 664.373 75.2124C664.303 80.7516 664.251 85.8292 664.216 90.4452C664.181 95.0611 664.164 99.3181 664.164 103.216L664.164 123.116C663.118 127.014 661.742 130.638 660.034 133.989C658.327 137.34 656.184 140.264 653.605 142.76C651.026 145.256 647.994 147.222 644.509 148.658C641.025 150.094 637.017 150.812 632.487 150.812Z" />
</svg>
